site/themes/s2b_hugo_theme/static/img/cal/icons/phone.svg

<svg xmlns="http://www.w3.org/2000/svg" width="80" height="80" viewBox="0 0 80 80">
  <path fill="#000000" fill-rule="evenodd" d="M64,7 L64,73 C64,75.209139 62.209139,77 60,77 L21,77 C18.790861,77 17,75.209139 17,73 L17,7 C17,4.790861 18.790861,3 21,3 L60,3 C62.209139,3 64,4.790861 64,7 Z M45,67 C45,65.8954305 44.1045695,65 43,65 L37,65 C35.8954305,65 35,65.8954305 35,67 L35,71.75 C35,72.8545695 35.8954305,73.75 37,73.75 L43,73.75 C44.1045695,73.75 45,72.8545695 45,71.75 L45,67 Z M57.5,13 C57.5,10.790861 55.709139,9 53.5,9 L27.5,9 C25.290861,9 23.5,10.790861 23.5,13 L23.5,58 C23.5,60.209139 25.290861,62 27.5,62 L53.5,62 C55.709139,62 57.5,60.209139 57.5,58 L57.5,13 Z"/>
</svg>

<svg xmlns="http://www.w3.org/2000/svg" width="80" height="80"><path fill-rule="evenodd" d="M64 7v66a4 4 0 0 1-4 4H21a4 4 0 0 1-4-4V7a4 4 0 0 1 4-4h39a4 4 0 0 1 4 4ZM45 67a2 2 0 0 0-2-2h-6a2 2 0 0 0-2 2v4.75a2 2 0 0 0 2 2h6a2 2 0 0 0 2-2V67Zm12.5-54a4 4 0 0 0-4-4h-26a4 4 0 0 0-4 4v45a4 4 0 0 0 4 4h26a4 4 0 0 0 4-4V13Z"/></svg>
